public/build/img/icMoneyD.svg

<svg xmlns="http://www.w3.org/2000/svg" xmlns:xlink="http://www.w3.org/1999/xlink" width="500" zoomAndPan="magnify" viewBox="0 0 375 374.999991" height="500" preserveAspectRatio="xMidYMid meet" version="1.0"><defs><clipPath id="cc614a36d1"><path d="M 112.5 112.5 L 262.5 112.5 L 262.5 262.5 L 112.5 262.5 Z M 112.5 112.5 " clip-rule="nonzero"/></clipPath></defs><g clip-path="url(#cc614a36d1)"><path fill="#e08709" d="M 187.5 112.5 C 146.085938 112.5 112.5 146.085938 112.5 187.5 C 112.5 228.914062 146.085938 262.5 187.5 262.5 C 228.914062 262.5 262.5 228.914062 262.5 187.5 C 262.5 146.085938 228.914062 112.5 187.5 112.5 Z M 187.5 120.832031 C 224.421875 120.832031 254.167969 150.578125 254.167969 187.5 C 254.167969 224.421875 224.421875 254.167969 187.5 254.167969 C 150.578125 254.167969 120.832031 224.421875 120.832031 187.5 C 120.832031 150.578125 150.578125 120.832031 187.5 120.832031 Z M 183.332031 141.667969 L 183.332031 150.828125 C 176.667969 151.664062 164.582031 157.496094 164.582031 171.664062 C 164.582031 198.328125 203.335938 184.582031 203.335938 204.582031 C 203.335938 211.25 200.417969 217.496094 187.5 217.496094 C 174.582031 217.496094 170.832031 207.5 170.832031 202.082031 L 162.5 202.082031 C 163.75 220 176.25 224.164062 183.332031 225.414062 L 183.332031 233.332031 L 191.667969 233.332031 L 191.667969 225.414062 C 197.917969 225 212.5 220.417969 212.5 203.75 C 212.5 190 201.246094 186.25 190.414062 183.75 C 181.664062 181.664062 173.746094 179.582031 173.746094 170.832031 C 173.746094 167.082031 175.414062 158.75 187.914062 158.75 C 196.664062 158.75 200.832031 164.167969 202.082031 170.832031 L 210.417969 170.832031 C 207.917969 161.667969 203.75 153.335938 191.667969 151.253906 L 191.667969 141.667969 Z M 183.332031 141.667969 " fill-opacity="1" fill-rule="nonzero"/></g></svg>

<svg xmlns="http://www.w3.org/2000/svg" width="500" viewBox="0 0 375 375" height="500" version="1.0"><defs><clipPath id="a"><path d="M112.5 112.5h150v150h-150zm0 0"/></clipPath></defs><g clip-path="url(#a)"><path fill="#e08709" d="M187.5 112.5c-41.414 0-75 33.586-75 75s33.586 75 75 75 75-33.586 75-75-33.586-75-75-75zm0 8.332c36.922 0 66.668 29.746 66.668 66.668 0 36.922-29.746 66.668-66.668 66.668-36.922 0-66.668-29.746-66.668-66.668 0-36.922 29.746-66.668 66.668-66.668zm-4.168 20.836v9.16c-6.664.836-18.75 6.668-18.75 20.836 0 26.664 38.754 12.918 38.754 32.918 0 6.668-2.918 12.914-15.836 12.914s-16.668-9.996-16.668-15.414H162.5c1.25 17.918 13.75 22.082 20.832 23.332v7.918h8.336v-7.918c6.25-.414 20.832-4.996 20.832-21.664 0-13.75-11.254-17.5-22.086-20-8.75-2.086-16.668-4.168-16.668-12.918 0-3.75 1.668-12.082 14.168-12.082 8.75 0 12.918 5.418 14.168 12.082h8.336c-2.5-9.164-6.668-17.496-18.75-19.578v-9.586zm0 0"/></g></svg>
